X:1
T:Lovsynger Herren
T:Lovsynger Herren
T:Tysk melodi
T:Joh. D. Behrens
T:J. Neander
C:Joh. D. Behrens
Z:J. Neander
%%score [ 1 2 3 4 ]
L:1/8
Q:1/4=114
M:3/4
K:Bb
V:1 treble-8 nm="T1"
V:2 treble-8 nm="T2"
V:3 bass nm="B1"
V:4 bass nm="B2"
V:1
!mf!"^Moderato" B2 B2 f2 | d3 c B2 | A2 G2 F2 | G2 A2 B2 | c6 | B4 z2 :|!f! f2 f2 f2 | g6 | %8
w: 1.Lov- syn- ger|Her- ren, den|e- vi- ge|Kon- ge med|Æ-|re,|Lad nu din|Sang,|
w: lov ham, min|Sjel, og stem|i med de|him- mel- ske|Hæ-|re!|||
 d2 e2 f2 | f3 e d2 | c6 |!mf! F2 G2!<(! A2 | B2!<)! c2 d2 | c6 | !fermata!B6 |] %15
w: baa- ren af|Har- per- nes|Klang,|jub- len- de|Pris ham frem-|bæ-|re!|
w: |||||||
V:2
!mf! F2 B2 c2 | B2 A2 G2 | F2 E2 F2 | G2 A2 B2 | (B4 A2) | B4 z2 :|!f! d2 c2 B2 | e6 | B2 c2 c2 | %9
w: 1.Lov- syn- ger|Her- ren, den|e- vi- ge|Kon- ge med|Æ- *|re,|Lad nu din|Sang,|baa- ren af|
w: lov ham, min|Sjel, og stem|i med de|him- mel- ske|Hæ- *|re!||||
 d2 A2 B2 | !fermata!A6 |!mf! F2 G2!<(! F2 | F2!<)! A2 B2 | (B2 A4) | !fermata!F6 |] %15
w: Har- per- nes|Klang,|jub- len- de|Pris ham frem-|bæ- *|re!|
w: ||||||
V:3
!mf! D,2 F,2 F,2 | F,3 E, D,2 | D,2 E,2 D,2 | E,2 E,2 F,2 | (G,4 F,2) | D,4 z2 :|!f! B,2 A,2 B,2 | %7
w: 1.Lov- syn- ger|Her- ren, den|e- vi- ge|Kon- ge med|Æ- *|re,|Lad nu din|
w: lov ham, min|Sjel, og stem|i med de|him- mel- ske|Hæ- *|re!||
 B,6 | G,2 G,2 F,2 | F,3 F, F,2 | F,6 |!mf! F,2 E,2!<(! F,2 | D,2!<)! E,2 F,2 | (G,2 F,4) | %14
w: Sang,|baa- ren af|Har- per- nes|Klang,|jub- len- de|Pris ham frem-|bæ- *|
w: |||||||
 !fermata!D,6 |] %15
w: re!|
w: |
V:4
!mf! B,,2 D,2 A,,2 | B,,2 F,,2 G,,2 | D,2 E,2 B,,2 | E,2 C,2 D,2 | (E,4 F,2) | B,,4 z2 :| %6
w: 1.Lov- syn- ger|Her- ren, den|e- vi- ge|Kon- ge med|Æ- *|re,|
w: lov ham, min|Sjel, og stem|i med de|him- mel- ske|Hæ- *|re!|
!f! B,2 F,2 D,2 | E,6 | G,2 C,2 A,,2 | %9
w: Lad nu din|Sang,|baa- ren af|
w: |||
"_2.Lovsynger Herren, som bærer den evige Krone!\nJorderig er kun hans Skammel, men Himlen hans Trone.\nHans er al Magt, Ære og Pris være bragt\nham, om hvem Himlene tone!\n" B,,2 C,2 D,2 | %10
w: Har- per- nes|
w: |
 F,6 |!mf! D,2 E,2!<(! C,2 | D,2!<)! C,2 B,,2 | (E,2 F,4) | !fermata!B,,6 |] %15
w: Klang,|jub- len- de|Pris ham frem-|bæ- *|re!|
w: |||||

